!!!!SEGMENT: pl-kk--kk-i-389--006-004_anonim--missa-no-6-graduale-alleluia-ave-maria.krn
!!!cenid: 17xx:2494
!!!COM: Anonim
!!!COM-rismID: pe30004985
!!!CDT:
!!!CNT:
!!!OPR: [Missa] No. 6.
!!!OTL: Graduale/Alleluia. Ave Maria
!!!OMV: 004
!!!PDT:
!!!AGN: Sacred; Mass
!!!YEC: Copyright 2022 Narodowy Instytut Fryderyka Chopina (https://polishscores.org)
!!!YEM: License CC-BY-4.0 (https://creativecommons.org/licenses/by/4.0)
!!!SMS-siglum: PL-Kk
!!!SMS-shelfmark: Kk.I.389
!!!SMS-variant:
!!!SMS-altvar:
!!!SMS-shelfwork: 006-004 M
!!!NIFC-rismSourceID: 1001146182
!!!NIFC-rismChildID: 1001147228
!!!NIFC-islandoraID: pl-kk:6976
!!!URL-pdf-islandora: https://repozytorium.nifc.pl/islandora/object/pl-kk%3A6976/datastream/PDF/view
!!!URL-scan: https://polish.musicsources.pl/pl/lokalizacje/galeria/rekopisy/5999/1 @EN{Scan on Polish Music Sources Website} @PL{Skany w portalu Dziedzictwo Muzyki Polskiej w otwartym dostępie}
!!!IIIF:
!!!ONB-nifc: UWAGA: S – skan 10-12, A – 29-31 , T – 48-49 , B – 67-69 . Części Mszy: Rorate, Kyrie, Gloria, Graduale, Sanctus, Benedictus, Agnus, Dona.
!!!AIN: 1 alto 1 bass 1 soprn 1 tenor
!!!key: G
**kern	**text	**kern	**text	**kern	**text	**text	**kern	**text
*part4	*part4	*part3	*part3	*part2	*part2	*part2	*part1	*part1
*staff4	*staff4	*staff3	*staff3	*staff2	*staff2	*staff2	*staff1	*staff1
*I"Basso.	*	*I"Tenore.	*	*I"Alto.	*	*	*I"Soprano.	*
*I'[B]	*	*I'[T]	*	*I'[A]	*	*	*I'[S]	*
*ICvox	*	*ICvox	*	*ICvox	*	*	*ICvox	*
*Ibass	*	*Itenor	*	*Ialto	*	*	*Isoprn	*
*clefF4	*	*clefC4	*	*clefC3	*	*	*clefC1	*
*k[]	*	*k[]	*	*k[]	*	*	*k[]	*
*G:	*	*G:	*	*G:	*	*	*G:	*
*M3/2	*	*M3/2	*	*M3/2	*	*	*M3/2	*
=1	=1	=1	=1	=1	=1	=1	=1	=1
!!LO:TX:t=P:problem: all\right	!	!	!	!	!	!	!
*2\right	*	*2\right	*	*2\right	*	*	*2\right	*
2G\	Al-	2d\	Al-	2g\	Al-	.	2b\	Al-
2G\	-le-	2d\	-le-	2g\	-le-	.	2b\	-le-
2C/	-lu-	2e\	-lu-	2e\	-lu-	.	2g\	-lu-
=2	=2	=2	=2	=2	=2	=2	=2	=2
4GG/	-ia	2.d\	-ia	1g	-ia,	.	1g	-ia.
4AA/	.	.	.	.	.	.	.	.
4BB/	.	.	.	.	.	.	.	.
4C/	.	4c\	.	.	.	.	.	.
2D\	al-	2B\	al-	2f#X\	.	.	2a\	Al-
=3	=3	=3	=3	=3	=3	=3	=3	=3
2BB/	-le-	2d\	-le-	2g\	Al-	.	2b\	.
2C/	.	4c\	.	2.g\	-le-	.	2.a\	-le-
.	.	4B\	.	.	.	.	.	.
2D/	-lu-	2A\	-lu-	.	.	.	.	.
.	.	.	.	4f#X\	-lu-	.	4a\	-lu-
=4	=4	=4	=4	=4	=4	=4	=4	=4
1GG	-ia	2G/	-ia	1g	-ia	.	4b\	-ia
.	.	.	.	.	.	.	4a\	.
.	.	2B\	al-	.	.	.	4b\	.
.	.	.	.	.	.	.	4cc\	.
2G\	Al-	2B\	-le-	2d\	al-	.	[2dd\	Al-
=5	=5	=5	=5	=5	=5	=5	=5	=5
1D	-le-	2.A\	-lu-	1f#X	-le-	.	2dd\]	.
.	.	.	.	.	.	.	2dd\	-le-
.	.	4B\	.	.	.	.	.	.
2D\	-lu-	4c\	-ia,	2f#\	-lu-	.	2dd\	-lu-
.	.	4A\	.	.	.	.	.	.
=6	=6	=6	=6	=6	=6	=6	=6	=6
1GG	-ia	2B\	al-	1g	-ia	.	1b	-ia
.	.	2d\	.	.	.	.	.	.
2C/	al-	2e\	-le-	2e\	al-	.	2cc\	Al-
!	!	!LO:LB:g=original	!	!	!	!	!LO:LB:g=original	!
=7	=7	=7	=7	=7	=7	=7	=7	=7
1D	-le-	2.d\	-lu-	1d	-le-	.	1a	-le-
.	.	4c\	.	.	.	.	.	.
2D\	-lu-	4B\	-ia.	2d\	-lu-	.	2a\	-lu-
.	.	4A\	.	.	.	.	.	.
!	!	!	!	!LO:LB:g=original	!	!	!	!
=8	=8	=8	=8	=8	=8	=8	=8	=8
!LO:TX:t=P:problem:brak taktu (lub nadmiarowy takt w S)	!	!LO:TX:t=P:problem:brak taktu (lub nadmiarowy takt w S)	!	!LO:TX:t=P:problem:brak taktu (lub nadmiarowy takt w S)	!	!	!	!
1.ryy	.	1.ryy	.	1.ryy	.	.	1.b	-ia,
!LO:LB:g=original	!	!	!	!	!	!	!	!
=9||	=9||	=9||	=9||	=9	=9	=9	=9||	=9||
*M3/4	*	*M3/4	*	*M3/4	*	*	*M3/4	*
4G\	-ia,	4B\	A-	4g\	-ia,	.	4b\	A-
4G\	A-	4d\	-ve	8g\L	A-	.	4dd\	-ve
.	.	.	.	8f\J	.	.	.	.
4GG/	-ve	4d\	Ma-	8g\L	-ve	.	4b\	Ma-
.	.	.	.	8a\J	Ma-	.	.	.
=10	=10	=10	=10	=10	=10	=10	=10	=10
4C/	Ma-	4c\	-ri-	4g\	-ri-	.	4ee\	-ri-
4C/	-ri-	4c\	-a	4g\	-a	.	4cc\	-a
4C/	-a	4c\	Ma-	4g\	Ma-	.	4ee\	A-
=11	=11	=11	=11	=11	=11	=11	=11	=11
2G\	a-	2d\	-ri-	2g\	-ri-	.	2dd\	-ve
4GG/	-ve	4d\	-a	4g\	-a	.	4dd\	Ma-
=12	=12	=12	=12	=12	=12	=12	=12	=12
2D\	a-	2d\	A-	2f#X\	A-	.	2a\	-ri-
4D\	-ve	4d\	-ve	4f#\	-ve	.	4a\	-a,
=13	=13	=13	=13	=13	=13	=13	=13	=13
4D\	A-	4d\	A-	4f#X\	A-	.	4dd\	A-
4D\	-ve	8d\L	.	8f#\L	-ve	.	4dd\	-ve
.	.	8c\J	-ve	8d\J	.	.	.	.
4D\	ma-	8d\L	Ma-	8e\L	ma-	.	4dd\	Ma-
.	.	8e\J	.	8f#\J	.	.	.	.
=14	=14	=14	=14	=14	=14	=14	=14	=14
2G\	-ri-	2d\	-ri-	2g\	-ri-	.	2dd\	-ri-
!	!	!	!	!LO:TX:t=P:problem:kasownik fn jako custos	!	!	!	!
!	!	!	!	!LO:TX:b:t=Volti Subitto,	!	!	!	!
4E\	-a	4e\	-a	4g\	-a	.	4cc\	-a
*	*	*	*	*custos:fn	*	*	*	*
!	!	!	!	!LO:LB:g=original	!	!	!	!
=15	=15	=15	=15	=15	=15	=15	=15	=15
4.F\	gra-	4.c\	gra-	4.fn\	[[Do-	gra-	4.cc\	gra-
8F\	-ti-	8c\	-ti-	8f\	-mi	-ti-	8cc\	-ti-
4D\	-a	4d\	-a	4f\	nus]]	-a	4b\	-a
!	!	!LO:LB:g=original	!	!	!	!	!LO:LB:g=original	!
=16	=16	=16	=16	=16	=16	=16	=16	=16
2E\	ple-	2B\	ple-	2e\	ple-	.	2b\	ple-
4AA/	-na	4e\	-na,	4e\	-na	.	4cc\	-na
=17	=17	=17	=17	=17	=17	=17	=17	=17
4.F\	Do-	4.c\	Do-	4.fn\	Do-	.	4.cc\	Do-
8F\	-mi-	8c\	-mi-	8f\	-mi-	.	8cc\	-mi-
4D\	-nus	4f\	-nus	4f\	-nus	.	4cc\	-nus
=18	=18	=18	=18	=18	=18	=18	=18	=18
2A\	te-	2.e\	te-	4f\	te-	.	2dd\	te-
!	!	!	!	!LO:N:vis=8.	!	!	!	!
.	.	.	.	8a\L	.	.	.	.
.	.	.	.	16g\L	.	.	.	.
.	.	.	.	16f\JJ	.	.	.	.
4AA/	.	.	.	4e\	.	.	4cc\	.
!LO:LB:g=original	!	!	!	!	!	!	!	!
=19	=19	=19	=19	=19	=19	=19	=19	=19
4D/	-cum,	4d\	-cum	4f#X\	-cum	.	4dd\	-cum,
8D/	Do-	8A\	be-	8f#\	Do-	.	8dd\	Do-
8D/	-mi-	8A\	-ne-	8f#\	-mi-	.	8dd\	-mi-
4BB/	-nus	4B\	-di-	4g\	-nus	.	4dd\	-nus
=20	=20	=20	=20	=20	=20	=20	=20	=20
2.D\	te-	2.A\	-cta,	2g\	te-	.	2.dd\	te-
.	.	.	.	4f#X\	-cum	.	.	.
=21	=21	=21	=21	=21	=21	=21	=21	=21
4GG/	-cum,	4G/	be-	4g\	be-	.	4dd\	-cum,
!	!	!	!	!	!	!	!LO:SIC:v:o=4cc#X\	!
4C/	be-	4e\	.	4g\	-ne-	.	4cc\	be-
4C/	-ne-	4e\	-ne-	4g\	-dic-	.	4ccn\	-ne-
!	!	!	!	!LO:LB:g=original	!	!	!	!
=22	=22	=22	=22	=22	=22	=22	=22	=22
4.G\	-di-	4d\	-di-	2g\	-ta,	.	4b\	-di-
.	.	4d\	-cta	.	.	.	4b\	-cta
8G\	-cta	.	.	.	.	.	.	.
4C/	tu	4c\	tu	4g\	.	.	4cc\	tu
=23	=23	=23	=23	=23	=23	=23	=23	=23
4C/	in	4e\	in	8g\	tu	.	4cc\	in
.	.	.	.	8g\	in	.	.	.
4C/	Mu-	4e\	Mu-	4e\	Mu-	.	4.cc\	Mu-
4AA/	-li-	4c\	-li-	4e\	-li-	.	.	.
.	.	.	.	.	.	.	8a\	-li-
!	!	!	!	!	!	!	!LO:LB:g=original	!
=24	=24	=24	=24	=24	=24	=24	=24	=24
4.E\	-e-	4.B\	-e-	4.e\	-e-	.	4.g\	-e-
8E\	-ri-	8B\	-ri-	8e\	-ri-	.	8g\	-ri-
!	!	!LO:SIC:v:o=4B\	!	!	!	!	!	!
4AA/	-bus,	4c\	-bus	4e\	-bus,	.	4a\	-bus,
!	!	!LO:LB:g=original	!	!	!	!	!	!
=25	=25	=25	=25	=25	=25	=25	=25	=25
4D\	et	4A\	et	4f#X\	et	.	4dd\	et
4D\	be-	4A\	be-	8f#\L	be-	.	4dd\	be-
.	.	.	.	8d\J	.	.	.	.
4D\	-ne-	4A\	-ne-	8e\L	-ne-	.	4dd\	-ne-
.	.	.	.	8f#\J	.	.	.	.
=26	=26	=26	=26	=26	=26	=26	=26	=26
!	!	!	!	!	!	!	!LO:SIC:v:o=2cc\	!
2G\	-di-	2B\	-di-	2g\	-di-	.	2dd\	-di-
4E\	-ctus	4G/	-ctus	4g\	-ctus	.	4dd\	-ctus
=27	=27	=27	=27	=27	=27	=27	=27	=27
2D\	fru-	2A/	fru-	2fn\	fru-	.	(4a\	fru-
.	.	.	.	.	.	.	4dd\)	.
!	!	!	!	!LO:SIC:v:o=4f\	!	!	!	!
4E\	-ctus	4G/	-ctus	4e\	-ctus	.	4b\	-ctus
!LO:LB:g=original	!	!	!	!	!	!	!	!
=28	=28	=28	=28	=28	=28	=28	=28	=28
4D/	Ven-	4F/	Ven-	4d\	Ven-	.	4dd\	Ven-
8D/L	-tris	8F/L	-tris	8d\L	.	.	8dd\L	-tris
8GG/J	.	8G/J	.	8e\J	.	.	8b\J	.
4AA/	tu-	4E/	tu-	4c#X\	-tris	.	4a\	tu-
!	!	!	!	!LO:LB:g=original	!	!	!	!
=29	=29	=29	=29	=29	=29	=29	=29	=29
4D\	-i,	4.D/	-i,	4d\	tu-	.	4a\	-i,
4G\	be-	.	.	4g\	-i,	.	4b\	be-
.	.	8c\	et	.	.	.	.	.
4E\	-ne-	8c\	be-	8g\	be-	.	4cc\	-ne-
.	.	8c\	-ne-	8g\	-ne-	.	.	.
=30	=30	=30	=30	=30	=30	=30	=30	=30
2G\	-dic-	2B\	-dic-	2g\	-dic-	.	2dd\	-dic-
4G\	-tus	4B\	-tus	4g\	-tus	.	4dd\	-tus
=31	=31	=31	=31	=31	=31	=31	=31	=31
2C/	fru-	2e\	fru-	4.g\	fru-	.	2cc\	fru-
.	.	.	.	8f\	.	.	.	.
4GG/	-ctus	4d\	-ctus	8g\L	-ctus	.	4dd\	-ctus
.	.	.	.	8f\J	.	.	.	.
!	!	!	!	!	!	!	!LO:LB:g=original	!
=32	=32	=32	=32	=32	=32	=32	=32	=32
2AA/	fru-	4c\	Ven-	2e\	Ven-	.	2a\	Ven-
.	.	(4c\	-tris	.	.	.	.	.
4E\	-ctus	4B\)	.	4e\	-tris	.	4b\	-tris
!	!	!LO:LB:g=original	!	!	!	!	!	!
=33	=33	=33	=33	=33	=33	=33	=33	=33
4C/	Ven-	4.c\	tu-	4g\	tu-	.	4ee\	Ven-
8C/L	.	.	.	4g\	-i	.	8ee\L	-tris
8AA/J	-tris	8B\	.	.	.	.	8dd\J	.
4D\	tu-	4A\	.	4f#X\	fru-	.	4dd\	tu-
=34	=34	=34	=34	=34	=34	=34	=34	=34
4GG/	-i	4G/	-i	4g\	-ctus	.	2dd\	-i,
4C/	fru-	4G/	fru-	4e\	fru-	.	.	.
4C/	-ctus	4G/	-ctus	4e\	-ctus	.	[4cc\	fru-
=35	=35	=35	=35	=35	=35	=35	=35	=35
2F\	Ven-	2A/	Ven-	2f\	Ven-	.	4cc\]	.
.	.	.	.	.	.	.	2cc\	-ctus
4C/	-tris	4G/	-tris	4e\	-tris	.	.	.
=36	=36	=36	=36	=36	=36	=36	=36	=36
4.D\	tu-	4.F/	tu-	4d\	tu-	.	4.a\	Ven-
.	.	.	.	4c\	.	.	.	.
8E\	.	8E/	.	.	.	.	8dd\	-tris
8F\L	.	4D/	.	4d\	.	.	4b\	tu-
8G\J	.	.	.	.	.	.	.	.
!LO:LB:g=original	!	!	!	!LO:LB:g=original	!	!	!	!
=37||	=37||	=37||	=37||	=37	=37	=37	=37||	=37||
*M2/2	*	*M2/2	*	*M2/2	*	*	*M2/2	*
*met(C.|)	*	*met(C.|)	*	*met(C.|)	*	*	*met(C.|)	*
2C/	-i.	2C/	-i	2e\	-i,	.	2cc\	-i,
[>2C/	al-	2c\	Al-	[2e\	Al-	.	[2g\	Al-
=38	=38	=38	=38	=38	=38	=38	=38	=38
2C/]	.	2c\	-le-	2e\]	.	.	2g\]	.
2BB/	-le-	2d\	.	2d\	-le-	.	2b\	-le-
=39	=39	=39	=39	=39	=39	=39	=39	=39
!	!	!LO:N:xstem:cue:vis=4	!	!	!	!	!	!
1D	-lu-	4d\	.	1d	-lu-	.	1a	-lu-
.	.	8c\L	.	.	.	.	.	.
.	.	8B\J	.	.	.	.	.	.
.	.	2A\	-lu-	.	.	.	.	.
=40	=40	=40	=40	=40	=40	=40	=40	=40
2GG/	-ia	2G/	-ia,	4d\	-ia	.	2g/	-ia,
.	.	.	.	4B\	.	.	.	.
2C/	al-	4r	.	2e\	al-	.	4r	.
.	.	4G/	al-	.	.	.	4e/	Al-
!	!	!	!	!	!	!	!LO:LB:g=original	!
=41	=41	=41	=41	=41	=41	=41	=41	=41
2AA/	.	2c\	.	2c\	-le-	.	2a\	-le-
2D\	.	2A\	.	2f\	.	.	2f/	-lu-
!	!	!LO:LB:g=original	!	!	!	!	!	!
=42	=42	=42	=42	=42	=42	=42	=42	=42
2BB/	.	2d\	.	2d\	.	.	2b\	-ia
2E\	.	2B\	.	2g\	.	.	2g\	Al-
=43	=43	=43	=43	=43	=43	=43	=43	=43
2C/	.	2e\	.	2e\	.	.	2cc\	-le-
2F\	.	2c\	.	2a\	-lu-	.	2a\	-lu-
=44	=44	=44	=44	=44	=44	=44	=44	=44
2D\	.	2f\	.	2f\	-ia	.	2dd\	-ia
2G\	.	2d\	.	2r	.	.	2b\	Al-
=45	=45	=45	=45	=45	=45	=45	=45	=45
!	!	!	!	!LO:TX:a:t=1.	!	!	!	!
2E\	-le-	2g\	.	1r	.	.	4.ee\	-le-
.	.	.	.	.	.	.	8dd\	-lu-
2A\	-[lu]-	2e\	-le-	.	.	.	2cc\	-ia,
=46	=46	=46	=46	=46	=46	=46	=46	=46
2D/	-ia	2d\	-lu-	2r	.	.	2r	.
2BB/	al-	[2d\	-ia	[2g\	a-	.	[2b\	Al-
=47	=47	=47	=47	=47	=47	=47	=47	=47
2BB/	.	2d\]	.	2g\]	.	.	2b\]	.
2C/	-le-	4c\	Al-	2g\	-le-	.	4a\	.
.	.	4B\	-le-	.	.	.	4g\	-le-
=48	=48	=48	=48	=48	=48	=48	=48	=48
1D	-lu-	1A	-lu-	4f#X\	-lu-	.	1dd	-lu-
.	.	.	.	2g\	.	.	.	.
.	.	.	.	4f#\	.	.	.	.
=49	=49	=49	=49	=49	=49	=49	=49	=49
!LO:N:vis=0	!	!LO:N:vis=0	!	!	!	!	!LO:N:vis=0	!
1GG	-ia.	1G	-ia.	1g	-ia.	.	1b	-ia.
==	==	==	==	==	==	==	==	==
*-	*-	*-	*-	*-	*-	*-	*-	*-
!!!system-decoration: [(s1,s2,s3,s4)]
!!!RDF**kern: > = above
!!!RDF**kern: < = below
!!!ENC: Anastazja Marusiak
!!!END: 2023-11-09
!!!EED: Jan Barakat
!!!EEV: 2023-12-02
!!!YEM: Copyright © 2023 by [Copyright Holder]
